!!!COM: Bach, Johann Sebastian
!!!OPR: Die Kunst der Fuge
!!!XEN: The Art of Fugue
!!!OTL:
!!!OMV: 18
!!!SCT: BWV 1080
!!!SCA: Thematisch-systematisches Verzeichnis der musikalischen Werke Johann Sebastian Bach: Bach-Werke-Verzeichnis (Schmieder)
!!!YOR: Bach Gesellschaft Edition xxv,1
!!!EED: Frances Bennion
!!!ENC: Frances Bennion
!!!CDT: 1685/3//-1750/7/28/
!!!OCY: Deutschland
!!!YEC: Copyright (c) 1994, 2000 Center for Computer Assisted Research in the Humanities
!!!YEM: Rights to all derivative editions reserved.
!!!YEM: Refer to licensing agreement for further details.
!!!YEN: United States of America
**kern	**kern
*k[b-]	*k[b-]
*d:	*d:
*clefG	*clefC
*M2/2	*M2/2
=1	=1
1r	12D
.	12E
.	12D
.	12C#
.	12D
.	12E
.	12F
.	12G
.	12F
.	12E
.	12F
.	12G
=2	=2
1r	[3..A
.	24A]
.	8G
.	8F
.	8E
=3	=3
1r	[3..F
.	24F]
.	8E
.	8D
.	8C#
=4	=4
1r	4D
.	8E
.	8F
.	8G
.	8A
.	4B-
=5	=5
1r	4B-
.	4C#
.	8r
.	8AA
.	8BB
.	8C#
=6	=6
1r	8D
.	8C#
.	8BB
.	8AA
.	8E
.	8C#
.	8BB
.	8AA
=7	=7
1r	8F
.	8E
.	4D
.	8r
.	8B-
.	8A
.	8G#
=8	=8
1r	8A
.	8F
.	8E
.	8D
.	8F
.	8E
.	8D
.	8C#
=9	=9
12a	4D
12b	.
12a	.
12g#	4r
12a	.
12b	.
12cc	12AA
12dd	12BB
12cc	12AA
12b	12GG#
12cc	12AA
12dd	12BB
=10	=10
[3..ee	8C
.	8AA
.	8BB
.	8C
.	8D
24ee]	.
8dd	8E
8cc	8F#
8b	8G#
=11	=11
[3..cc	8A
.	8G
.	8F
.	8E
.	4.D
24cc]	.
8b	.
8a	.
8g#	8E
=12	=12
4a	8F
.	8E
8b	8D
8cc	8C
8dd	8BB
8ee	8C
4ff	8D
.	8BB
=13	=13
4ff	8GG#
.	8AA
4g#	8BB
.	8EE
8r	8E
8e	8C
8f#	8D
8g#	8E
=14	=14
8a	8FF#
8g#	8AA
8f#	4D
8e	.
8b	8GG#
8g#	8BB
8f#	4E
8e	.
=15	=15
8cc	8AA
8b	8C
4a	8D
.	8E
8r	8F
8ff	8D
8ee	8C
8dd#	8BB
=16	=16
8ee	4C
8cc	.
8b	4F
8a	.
8cc	4D
8b	.
8a	4E
8g#	.
=17	=17
4a	12F
.	12G
.	12F
4r	12E
.	12F
.	12G
12e	4.A
12f	.
12e	.
12d	.
12e	.
.	16G
12f	.
.	16F
=18	=18
8g	8E
8e	8C
8f	8D
8g	8E
8a	4.F
8b	.
8cc#	.
8dd	16E
.	16D
=19	=19
8ee	4C#
8dd	.
8cc#	4AA
8b	.
4.a	8r
.	8D
.	8C
8b-	8BB-
=20	=20
8cc	4AA
8b-	.
8a	8FF
8g	8AA
8f	4D
8g	.
8a	4FF
8f	.
=21	=21
8d	4GG
8e	.
8f	4DD
8B-	.
8b-	8r
8g	8EE
8a	8FF
8b-	8GG
=22	=22
8c	8AA
8e	8GG
4a	8FF
.	8AA
8d	8BB-
8f	8AA
4b-	8GG
.	8BB-
=23	=23
8e	8C
8g	8BB-
8a	8AA
8b-	8GG
8cc	8AA
8a	8F
8g	8E
8f	8D
=24	=24
4g	8E
.	8C
4cc	8AA
.	8C
4a	8FF#
.	8AA
4b	8GG#
.	8BB
=25	=25
12cc	4AA
12dd	.
12cc	.
12b	4r
12cc	.
12dd	.
4.ee	12E
.	12F
.	12E
.	12D
.	12E
16dd	.
.	12F
16cc	.
=26	=26
8b	[6..G
8g	.
8a	.
.	48G]
.	16F
8b	16E
.	16D
4.cc	12C
.	12D
.	12C
.	12BB
.	12C
16b	.
.	12D
16a	.
=27	=27
4g#	8E
.	8D
4e	8C
.	8BB
8r	4.AA
8a	.
8g	.
8f	8BB
=28	=28
4e	8C
.	8BB-
8c	8AA
8e	8GG
4a	8FF
.	8GG
4c#	8AA
.	8FF
=29	=29
4d	8BB-
.	8GG
4A	8FF
.	8EE
8r	4DD
8B	.
8c#	4r
8d	.
=30	=30
8e	4r
8d	.
8c#	4AA
8e	.
8f	8DD
8e	8FF
8d	4BB-
8f	.
=31	=31
8g	8EE
8f	8GG
8e	4C
8d	.
8e	8r
8cc	8AA
8b-	8GG
8a	8FF#
=32	=32
8b-	4GG
8g	.
8e	2AA
8g	.
8c#	.
8e	.
8d	4BB-
8f	.
=33	=33
4e	8CC#
.	8DD
4r	8EE
.	8FF
12b	12GG
12cc	12AA
12b	12GG
12a	12FF
12b	12GG
12cc#	12AA
=34	=34
12dd	4BB-
12ee	.
12dd	.
12cc#	4GG
12dd	.
12ee	.
12ff	12D
12gg	12E
12ff	12D
12ee	12C#
12ff	12D
12gg	12E
=35	=35
[3..aa	12F
.	12G
.	12F
.	12E
.	12F
.	12G
.	8A
24aa]	.
8gg	8D
8ff	[4d
8ee	.
=36	=36
[3..ff	8d]
.	8c
.	8B-
.	8A
.	[2B-
24ff]	.
8ee	.
8dd	.
8cc#	.
=37	=37
4dd	8B-]
.	8A
8ee	8G
8ff	8F
8gg	8E
8aa	8F
4bb-	8G
.	8E
=38	=38
4bb-	8C#
.	8D
4cc#	8E
.	8AA
8r	8A
8a	8F
8b	8G
8cc#	8A
=39	=39
8dd	8BB
8cc#	8D
8b	4G
8a	.
8ee	8C#
8cc#	8E
8b	4A
8a	.
=40	=40
8ff	8D
8ee	8F
4dd	8G
.	8A
8r	8B-
8bb-	8G
8aa	8F
8gg#	8E
=41	=41
8aa	4F
8ff	.
8ee	4B-
8dd	.
8ff	4G
8ee	.
8dd	4A
8cc#	.
=42	=42
4dd	12D
.	12E
.	12D
4r	12C#
.	12D
.	12E
12a	12F
12b	12G
12a	12F
12g#	12E
12a	12F
12b	12G
=43	=43
8cc#	[3..A
8a	.
8b	.
8cc#	.
8dd	.
.	24A]
8ee	8G
8ff	8F
8gg	8E
=44	=44
8aa	[3..F
8gg	.
8ff	.
8ee	.
4.dd	.
.	24F]
.	8E
.	8D
8ee	8C#
=45	=45
8ff	4D
8ee	.
8dd	8E
8cc	8F
8b-	8G
8cc	8A
8dd	4B-
8b-	.
=46	=46
8g	4B-
8a	.
8b-	4C#
8e	.
8ee	8r
8cc#	8AA
8dd	8BB
8ee	8C#
=47	=47
8f	8D
8a	8C#
4dd	8BB
.	8AA
8g	8E
8b-	8C#
4ee	8BB
.	8AA
=48	=48
8a	8F
8cc#	8E
8dd	4D
8ee	.
8ff	8r
8dd	8B-
8cc#	8A
8b	8G#
=49	=49
4cc#	8A
.	8F
4ff	8E
.	8D
4dd	8F
.	8E
4ee	8D
.	8C#
=50	=50
12ff	4D
12gg	.
12ff	.
12ee	4r
12ff	.
12gg	.
4.aa	12AA
.	12BB-
.	12AA
.	12GG
.	12AA
16gg	.
.	12BB
16ff	.
=51	=51
8ee	8C#
8cc#	8AA
8dd	8BB
8ee	8C#
4.ff	8D
.	8E
.	8F
16ee	8G
16dd	.
=52	=52
4cc#	8A
.	8G
4a	8F
.	8E
8r	4.D
8dd	.
8cc	.
8b-	8E
=53	=53
4a	8F
.	8E
8f	8D
8a	8C
4dd	8BB-
.	8C
4f#	8D
.	8BB-
=54	=54
4g	8GG
.	8AA
4d	8BB-
.	8EE
8r	8E
8e	8C#
8f	8D
8g	8E
=55	=55
8a	8FF
8g	8AA
8f	4D
8a	.
8b-	8GG
8a	8BB-
8g	4E
8b-	.
=56	=56
8cc	8AA
8b-	8C
8a	8D
8g	8E
8a	8F
8ff	8D
8ee	8C
8dd	8BB
=57	=57
8ee	4C
8cc	.
8a	4F
8cc	.
8f	4D
8a	.
8g	4E
8b-	.
=58	=58
4a	12F
.	12G
.	12F
4r	12E
.	12F
.	12G
12ee	4.A
12ff	.
12ee	.
12dd	.
12ee	.
.	16G
12ff	.
.	16F
=59	=59
[6..gg	8E
.	8C
.	8D
48gg]	.
16ff	.
16ee	8E
16dd	.
12cc	4.F
12dd	.
12cc	.
12b	.
12cc	.
.	16E
12dd	.
.	16D
=60	=60
8ee	4C#
8dd	.
8cc#	4AA
8b	.
4.a	8r
.	8D
.	8C
8b-	8BB-
=61	=61
8cc	4AA
8b-	.
8a	8FF
8g	8AA
8f	4D
8g	.
8a	4FF
8f	.
=62	=62
8b-	4GG
8g	.
8f	4DD
8e	.
4d	8r
.	8EE
4r	8FF
.	8GG
=63	=63
4r	8AA
.	8GG
4a	8FF
.	8AA
8d	8BB-
8f	8AA
4b-	8GG
.	8BB-
=64	=64
8e	8C
8g	8BB-
4cc	8AA
.	8GG
8r	8AA
8a	8F
8g	8E-
8f#	8D
=65	=65
4g	8E-
.	8C
2a	8AA
.	8C
.	8FF#
.	8AA
4b-	8GG
.	8BB-
=66	=66
8c#	4AA
8d	.
8e	4r
8f	.
12g	12E
12a	12F
12g	12E
12f	12D
12g	12E
12a	12F
=67	=67
4b-	12G
.	12A
.	12G
4g	12F
.	12G
.	12A
12dd	4B-
12ee	.
12dd	.
12cc#	4G
12dd	.
12ee	.
=68	=68
4ff	12D
.	12E
.	12D
4dd	12C#
.	12D
.	12E
12a	12F
12b	12G
12a	12F
12g#	12E
12a	12F
12b	12G
=69	=69
12cc#	[3..A
12dd	.
12cc#	.
12b	.
12cc#	.
12dd	.
8ee	.
.	24A]
8a	8G
[4aa	8F
.	8E
=70	=70
8aa]	[3..F
8gg	.
8ff	.
8ee	.
[2ff	.
.	24F]
.	8E
.	8D
.	8C#
=71	=71
8ff]	4D
8ee	.
8dd	8E
8cc	8F
8b-	8G
8cc	8A
8dd	4B-
8b-	.
=72	=72
8g	4B-
8a	.
8b-	4C#
8e	.
8ee	8r
8cc#	8AA
8dd	8BB
8ee	8C#
=73	=73
8f	8D
8a	8C#
4dd	8BB
.	8AA
8g	8E
8b-	8C#
4ee	8BB
.	8AA
=74	=74
8a	8F
8cc#	8E
8dd	4D
8ee	.
8ff	8r
8dd	8B-
8cc#	8A
8b	8G#
=75	=75
4cc#	8A
.	8F
4ff	8E
.	8D
4dd	8F
.	8E
4ee	8D
.	8C#
=76	=76
8ff	8D
8ee	8FF
4dd	8GG
.	8AA
8r	8BB-
8bb-	8GG
8aa	8FF
8gg#	8EE
=77	=77
8aa	4FF
8ff	.
8ee	4BB-
8dd	.
8ff	4GG
8ee	.
8dd	4AA
8cc#	.
=78	=78
1dd	1DD
==	==
*-	*-
!!!RWG1: This file contains only pitch and duration data.
!!!RWG2: Transposing instruments are not transposed.
!!!RWG3: Spines may have incompatible meters.
!!!RWG4: Durations of rests and tied notes may be interpreted.
!!!RWG: Key is interpreted using the Humdrum key tool.
!!!AFT: stage1
!!!END: 1997/04/15/
!!format changes:
!!content changes:
!!public access: complete
!!!KEY: 3132724317
!!!EMD: Converted from MuseData to Humdrum Dec 19, 2000, by Andreas Kornstaedt using muse2kern.
